actions/scalable/mail-replied.svg

<?xml version="1.0" encoding="UTF-8" standalone="no"?>
<!-- Created with Inkscape (http://www.inkscape.org/) -->

<svg
   xmlns:dc="http://purl.org/dc/elements/1.1/"
   xmlns:cc="http://creativecommons.org/ns#"
   xmlns:rdf="http://www.w3.org/1999/02/22-rdf-syntax-ns#"
   xmlns:svg="http://www.w3.org/2000/svg"
   xmlns="http://www.w3.org/2000/svg"
   xmlns:sodipodi="http://sodipodi.sourceforge.net/DTD/sodipodi-0.dtd"
   xmlns:inkscape="http://www.inkscape.org/namespaces/inkscape"
   width="22"
   height="22"
   id="svg3869"
   version="1.1"
   inkscape:version="0.91pre2 r"
   sodipodi:docname="mail-replied.svg">
  <defs
     id="defs3871" />
  <sodipodi:namedview
     id="base"
     pagecolor="#ffffff"
     bordercolor="#666666"
     borderopacity="1.0"
     inkscape:pageopacity="0.0"
     inkscape:pageshadow="2"
     inkscape:zoom="181.01934"
     inkscape:cx="3.0365229"
     inkscape:cy="11.782731"
     inkscape:document-units="px"
     inkscape:current-layer="layer1"
     showgrid="true"
     fit-margin-top="0"
     fit-margin-left="0"
     fit-margin-right="0"
     fit-margin-bottom="0"
     inkscape:window-width="1366"
     inkscape:window-height="673"
     inkscape:window-x="-4"
     inkscape:window-y="24"
     inkscape:window-maximized="1"
     inkscape:showpageshadow="false">
    <inkscape:grid
       type="xygrid"
       id="grid4132" />
    <sodipodi:guide
       position="2,20.000017"
       orientation="18,0"
       id="guide4138" />
    <sodipodi:guide
       position="2,2.0000174"
       orientation="0,18"
       id="guide4140" />
    <sodipodi:guide
       position="20,2.0000174"
       orientation="-18,0"
       id="guide4142" />
    <sodipodi:guide
       position="20,20.000017"
       orientation="0,-18"
       id="guide4144" />
    <sodipodi:guide
       position="3,19.000017"
       orientation="16,0"
       id="guide4146" />
    <sodipodi:guide
       position="3,3.0000174"
       orientation="0,16"
       id="guide4148" />
    <sodipodi:guide
       position="19,3.0000174"
       orientation="-16,0"
       id="guide4150" />
    <sodipodi:guide
       position="19,19.000017"
       orientation="0,-16"
       id="guide4152" />
    <sodipodi:guide
       position="0,9.0000174"
       orientation="6,0"
       id="guide4181" />
    <sodipodi:guide
       position="0,3.0000174"
       orientation="0,22"
       id="guide4183" />
    <sodipodi:guide
       position="22,3.0000174"
       orientation="-6,0"
       id="guide4185" />
    <sodipodi:guide
       position="-1,3.0000174"
       orientation="0,12"
       id="guide4195" />
    <sodipodi:guide
       position="11,3.0000174"
       orientation="-16,0"
       id="guide4197" />
    <sodipodi:guide
       position="11,19.000017"
       orientation="0,-12"
       id="guide4199" />
    <sodipodi:guide
       position="11,9.048828"
       orientation="-1.414063,0"
       id="guide4223" />
    <sodipodi:guide
       position="2.4628906,19"
       orientation="0,-1.4140625"
       id="guide4227" />
    <sodipodi:guide
       position="11,9.04883"
       orientation="-1.41406,0"
       id="guide4233" />
    <sodipodi:guide
       position="19.53711,19"
       orientation="0,1.41406"
       id="guide4237" />
    <sodipodi:guide
       position="14,10.000017"
       orientation="7,0"
       id="guide4158" />
    <sodipodi:guide
       position="14,3.0000174"
       orientation="0,7"
       id="guide4160" />
    <sodipodi:guide
       position="21,3.0000174"
       orientation="-7,0"
       id="guide4162" />
    <sodipodi:guide
       position="21,10.000017"
       orientation="0,-7"
       id="guide4164" />
    <sodipodi:guide
       position="15,9.0000174"
       orientation="6,0"
       id="guide4168" />
    <sodipodi:guide
       position="15,3.0000174"
       orientation="0,6"
       id="guide4170" />
    <sodipodi:guide
       position="21,3.0000174"
       orientation="-6,0"
       id="guide4172" />
    <sodipodi:guide
       position="21,9.0000174"
       orientation="0,-6"
       id="guide4174" />
    <sodipodi:guide
       position="1,9.0000174"
       orientation="6,0"
       id="guide4176" />
    <sodipodi:guide
       position="1,3.0000174"
       orientation="0,5.9999695"
       id="guide4178" />
    <sodipodi:guide
       position="6.9999695,3.0000174"
       orientation="-6,0"
       id="guide4180" />
    <sodipodi:guide
       position="6.9999695,9.0000174"
       orientation="0,-5.9999695"
       id="guide4182" />
  </sodipodi:namedview>
  <metadata
     id="metadata3874">
    <rdf:RDF>
      <cc:Work
         rdf:about="">
        <dc:format>image/svg+xml</dc:format>
        <dc:type
           rdf:resource="http://purl.org/dc/dcmitype/StillImage" />
        <dc:title />
      </cc:Work>
    </rdf:RDF>
  </metadata>
  <g
     inkscape:label="Capa 1"
     inkscape:groupmode="layer"
     id="layer1"
     transform="translate(-326,-534.3622)">
    <path
       style="opacity:1;fill:#666666;fill-opacity:1;stroke:none;stroke-width:2.79999995;stroke-miterlimit:4;stroke-dasharray:none;stroke-opacity:0.55026455"
       d="M 3,3 3,4 3,5 3,6 1,9 1,10 1,11.400391 1,12 2,12 2,11 2,10.400391 2,10 2.4003906,10 3,10 4.078125,10 11,13.996094 17.921875,10 18,10 l 1,0 1,0 0,0.400391 L 20,11 l 0,1 0,6 -6,0 -7,0 0,1 1,0 6,0 6,0 1,0 0,-1 0,-6 0,-0.599609 L 21,9.9863281 21,9 19,6 19,3 4,3 Z M 4,4 18,4 18,5 18,8.7988281 11,12.839844 4,8.7988281 4,5 Z M 5,5 5,5.9863281 4.9863281,6 5,6 17,6 17.013672,6 17,5.9863281 17,5 Z m 0,2 0,1 7,0 0,-1 z"
       transform="translate(326,534.3622)"
       id="rect4144"
       inkscape:connector-curvature="0"
       sodipodi:nodetypes="cccccccccccccccccccccccccccccccccccccccccccccccccccccccccccccc" />
    <path
       style="fill:#666666;fill-opacity:1;fill-rule:evenodd;stroke:none;stroke-width:1px;stroke-linecap:butt;stroke-linejoin:miter;stroke-opacity:1"
       d="m 4,13 -3,3 3,3 0,-2 2,0 0,-2 -2,0 z"
       transform="translate(326,534.3622)"
       id="path4186"
       inkscape:connector-curvature="0"
       sodipodi:nodetypes="cccccccc" />
  </g>
</svg>

<svg height="22" width="22" xmlns="http://www.w3.org/2000/svg" xmlns:sodipodi="http://sodipodi.sourceforge.net/DTD/sodipodi-0.dtd" xmlns:inkscape="http://www.inkscape.org/namespaces/inkscape">
 <path d="m3 3v1 1 1l-2 3v1 1.4 0.6h1v-1-0.6-0.4h0.4004 0.5996 1.0781l6.9219 3.996 6.922-3.996h0.078 1 1v0.4 0.6 1 6h-6-7v1h1 6 6 1v-1-6-0.6-1.4137-0.9863l-2-4v-2h-15-1zm1 1h14v1 3.7988l-7 4.0412-7-4.0412v-3.7988-1zm1 1v0.9863l-0.0137 0.0137h0.0137 12 0.014l-0.014-0.0137v-0.9863h-12zm0 2v1h7v-1h-7z" fill="#4d4d4d" transform="matrix(1 0 0 1 0 0)"/>
 <path d="m63.436 65c6.036-15.359-2.888-17.33-17.329-14.442v11.553l-23.107-18.906 23.107-18.641v11.553c8.665 0 15.523-1.4801 21.661 5.3796 6.137 6.859 2.889 13.394-4.332 23.503z" fill="#4d4d4d" transform="matrix(0.12158 0 0 0.12158 -1.78 10.73)"/>
</svg>
